src/icons/icons_set_01/033-coeur.svg

<?xml version="1.0" encoding="UTF-8"?>
<svg width="50px" height="50px" viewBox="0 0 50 50" version="1.1" xmlns="http://www.w3.org/2000/svg" xmlns:xlink="http://www.w3.org/1999/xlink">
    <!-- Generator: Sketch 52.4 (67378) - http://www.bohemiancoding.com/sketch -->
    <title>033-coeur</title>
    <desc>Created with Sketch.</desc>
    <g id="033-coeur" stroke="none" stroke-width="1" fill="none" fill-rule="evenodd">
        <g id="Group" transform="translate(3.995000, 6.480799)" fill="#000000" fill-rule="nonzero">
            <g id="200-coeur">
                <g id="ICONSET-01">
                    <g id="200-coeur">
                        <path d="M20.9950568,36.8793112 C20.1474859,36.8808932 19.3342566,36.5445079 18.7354657,35.9446509 L4.22585799,21.4251 C0.889323262,18.4770973 -0.565012302,13.9387328 0.436635439,9.60054354 C1.43828318,5.26235429 4.73506674,1.82097924 9.02629445,0.63415625 C13.3175222,-0.552666746 17.9140963,0.705645778 21.0025142,3.91264734 C23.2824715,1.52105863 26.4458347,0.172651446 29.7500402,0.183949112 C34.801522,0.178411472 39.3279267,3.30322798 41.1133719,8.02865768 C42.8988168,12.7540874 41.5696997,18.09134 37.7766846,21.4275858 L23.2621053,35.9446509 C22.661806,36.5468163 21.8453188,36.8834382 20.9950568,36.8793112 Z" id="Shape"></path>
                    </g>
                </g>
            </g>
        </g>
    </g>
</svg>

<svg height="50" viewBox="0 0 50 50" width="50" xmlns="http://www.w3.org/2000/svg"><path d="m20.9950568 36.8793112c-.8475709.001582-1.6608002-.3348033-2.2595911-.9346603l-14.50960771-14.5195509c-3.33653473-2.9480027-4.79087029-7.4863672-3.78922255-11.82455646 1.00164774-4.33818925 4.2984313-7.7795643 8.58965901-8.96638729 4.29122775-1.186823 8.88780185.07148953 11.97621975 3.27849109 2.2799573-2.39158871 5.4433205-3.73999589 8.747526-3.72869823 5.0514818-.00553764 9.5778865 3.11927887 11.3633317 7.84470857 1.7854449 4.72542972.4563278 10.06268232-3.3366873 13.39892812l-14.5145793 14.5170651c-.6002993.6021654-1.4167865.9387873-2.2670485.9346603z" transform="translate(3.995 6.480799)"/></svg>
